Newaita-dark/actions/32/process-stop.svg

<?xml version="1.0" encoding="UTF-8"?>
<svg xmlns="http://www.w3.org/2000/svg" xmlns:xlink="http://www.w3.org/1999/xlink" width="32pt" height="32pt" viewBox="0 0 32 32" version="1.1">
<defs>
<filter id="alpha" filterUnits="objectBoundingBox" x="0%" y="0%" width="100%" height="100%">
  <feColorMatrix type="matrix" in="SourceGraphic" values="0 0 0 0 1 0 0 0 0 1 0 0 0 0 1 0 0 0 1 0"/>
</filter>
<mask id="mask0">
  <g filter="url(#alpha)">
<rect x="0" y="0" width="32" height="32" style="fill:rgb(0%,0%,0%);fill-opacity:0.988235;stroke:none;"/>
  </g>
</mask>
<clipPath id="clip1">
  <rect x="0" y="0" width="32" height="32"/>
</clipPath>
<g id="surface5" clip-path="url(#clip1)">
<path style=" stroke:none;fill-rule:nonzero;fill:rgb(93.725491%,32.549021%,31.37255%);fill-opacity:1;" d="M 7.9375 16.125 C 7.9375 15.578125 8.382812 15.132812 8.929688 15.132812 L 22.824219 15.132812 C 23.371094 15.132812 23.816406 15.578125 23.816406 16.125 C 23.816406 16.675781 23.371094 17.117188 22.824219 17.117188 L 8.929688 17.117188 C 8.382812 17.117188 7.9375 16.675781 7.9375 16.125 Z M 7.9375 16.125 "/>
</g>
</defs>
<g id="surface1">
<path style=" stroke:none;fill-rule:nonzero;fill:rgb(93.725491%,32.549021%,31.37255%);fill-opacity:1;" d="M 15.875 1.574219 C 7.8125 1.574219 1.324219 8.0625 1.324219 16.125 C 1.324219 24.1875 7.8125 30.679688 15.875 30.679688 C 23.9375 30.679688 30.429688 24.1875 30.429688 16.125 C 30.429688 8.0625 23.9375 1.574219 15.875 1.574219 Z M 15.875 3.558594 C 22.839844 3.558594 28.445312 9.164062 28.445312 16.125 C 28.445312 23.089844 22.839844 28.695312 15.875 28.695312 C 8.914062 28.695312 3.308594 23.089844 3.308594 16.125 C 3.308594 9.164062 8.914062 3.558594 15.875 3.558594 Z M 15.875 3.558594 "/>
<use xlink:href="#surface5" mask="url(#mask0)"/>
</g>
</svg>

<svg xmlns="http://www.w3.org/2000/svg" xmlns:xlink="http://www.w3.org/1999/xlink" width="32pt" height="32pt" viewBox="0 0 32 32"><defs><filter id="a" filterUnits="objectBoundingBox" x="0%" y="0%" width="100%" height="100%"><feColorMatrix in="SourceGraphic" values="0 0 0 0 1 0 0 0 0 1 0 0 0 0 1 0 0 0 1 0"/></filter><mask id="d"><path fill-opacity=".988" d="M0 0h32v32H0z" filter="url(#a)"/></mask><clipPath id="b"><path d="M0 0h32v32H0z"/></clipPath><g id="c" clip-path="url(#b)"><path d="M7.938 16.125c0-.547.445-.992.992-.992h13.894a.991.991 0 1 1 0 1.984H8.93a.991.991 0 0 1-.992-.992zm0 0" fill="#ef5350"/></g></defs><path d="M15.875 1.574a14.517 14.517 0 0 0-14.55 14.551 14.52 14.52 0 0 0 14.55 14.555A14.524 14.524 0 0 0 30.43 16.125a14.52 14.52 0 0 0-14.555-14.55zm0 1.985a12.54 12.54 0 0 1 12.57 12.566c0 6.965-5.605 12.57-12.57 12.57a12.54 12.54 0 0 1-12.566-12.57A12.54 12.54 0 0 1 15.875 3.559zm0 0" fill="#ef5350"/><use xlink:href="#c" mask="url(#d)"/></svg>
